X:2536
T:Cantar de Ronda (CT 014)
R:Ronda
C:Tradicional
S:Música Tradicional Asturiana, (C) Tello & Tito. Asturies, 2001.
S:http://pagina.de/MusTradAst <telloytito@asturies.org>
N:Canción de ronda, dictada por Catalina Muñiz Llano, de 50 años, de Llamo, ayuntamiento de Riosa.
O:Llamo (Riosa)
A:Asturies
Z:Cancioneru de Torner 014
M:3/4
L:1/8
Q:1/4=180
W:¡Ai, Soberana!
W:Y el que a buen árbol s'arima
W:buena sombra le acompaña.
K:C
A2
|d4 c2|B2 G2 cc|A6-|A2 z2 A2|
d4 c2|B2 A z AB|c4 {B}A2|c4 B2|(AB//A//G//A//) G4-|G2 z4||


